vue-project/src/assets/YOWL.svg

<svg width="1094" height="446" fill="none" xmlns="http://www.w3.org/2000/svg"><path d="M534.082 94.925 601.555 360h66.732l39.669-165.347h.742L748.366 360h66.732l67.474-265.075H815.84l-34.108 179.806h-.741L739.839 94.925h-63.025l-41.151 179.806h-.742L600.814 94.925h-66.732zm366.815 0V360h184.623v-54.498H967.629V94.925h-66.732zM.37 95.296l88.977 167.201v97.874h66.732v-97.874l89.347-167.201h-70.439l-51.903 108.996h-.742L70.81 95.296H.37z" fill="#fff"/><mask id="a" fill="#fff"><path fill-rule="evenodd" clip-rule="evenodd" d="M389.271 359.612c76.782 0 139.026-62.244 139.026-139.025 0-76.782-62.244-139.025-139.026-139.025-76.781 0-139.025 62.243-139.025 139.025V359.613h139.026l-.001-.001z"/></mask><path d="M389.271 359.612v-54.498H313.66l23.91 71.732 51.701-17.234zM250.246 220.775h54.498v-.072l-54.498.072zm0 138.838h-54.498v54.497h54.498v-54.497zm139.026 0v54.497h75.611l-23.91-71.731-51.701 17.234zm84.527-139.026c0 46.683-37.844 84.527-84.528 84.527V414.11c106.88 0 193.524-86.643 193.524-193.523H473.799zm-84.528-84.528c46.684 0 84.528 37.845 84.528 84.528h108.996c0-106.88-86.644-193.523-193.524-193.523v108.995zm-84.527 84.528c0-46.683 37.844-84.528 84.527-84.528V27.064c-106.88 0-193.523 86.643-193.523 193.523h108.996zm0 .116v-.116H195.748v.26l108.996-.144zm0 138.91V220.775H195.748v138.838h108.996zm84.528-54.498H250.246V414.11h139.026V305.115zm-51.702 71.731 103.403-34.467v-.001L337.57 376.846z" fill="#15E3A5" mask="url(#a)"/></svg>

<svg width="1094" height="446" viewBox="0 0 1094 446" fill="none" xmlns="http://www.w3.org/2000/svg">
<path d="M534.082 94.9251L601.555 360H668.287L707.956 194.653H708.698L748.366 360H815.098L882.572 94.9251H815.84L781.732 274.731H780.991L739.839 94.9251H676.814L635.663 274.731H634.921L600.814 94.9251H534.082ZM900.897 94.9251V360H1085.52V305.502H967.629V94.9251H900.897Z" fill="white"/>
<path d="M0.370734 95.2957L89.3469 262.497V360.371H156.079V262.497L245.426 95.2957H174.987L123.084 204.292H122.342L70.8102 95.2957H0.370734Z" fill="white"/>
<mask id="path-3-inside-1_519_273" fill="white">
<path fill-rule="evenodd" clip-rule="evenodd" d="M389.271 359.612C466.053 359.612 528.297 297.368 528.297 220.587C528.297 143.805 466.053 81.5615 389.271 81.5615C312.49 81.5615 250.246 143.805 250.246 220.587C250.246 220.65 250.246 220.712 250.246 220.775V359.613H389.272L389.271 359.612Z"/>
</mask>
<path d="M389.271 359.612V305.114H313.66L337.57 376.846L389.271 359.612ZM250.246 220.775H304.744V220.739L304.744 220.703L250.246 220.775ZM250.246 359.613H195.748V414.11H250.246V359.613ZM389.272 359.613V414.11H464.883L440.973 342.379L389.272 359.613ZM473.799 220.587C473.799 267.27 435.955 305.114 389.271 305.114V414.11C496.151 414.11 582.795 327.467 582.795 220.587H473.799ZM389.271 136.059C435.955 136.059 473.799 173.904 473.799 220.587H582.795C582.795 113.707 496.151 27.0636 389.271 27.0636V136.059ZM304.744 220.587C304.744 173.904 342.588 136.059 389.271 136.059V27.0636C282.391 27.0636 195.748 113.707 195.748 220.587H304.744ZM304.744 220.703C304.744 220.664 304.744 220.626 304.744 220.587H195.748C195.748 220.674 195.748 220.761 195.748 220.847L304.744 220.703ZM304.744 359.613V220.775H195.748V359.613H304.744ZM389.272 305.115H250.246V414.11H389.272V305.115ZM337.57 376.846L337.57 376.846L440.973 342.379L440.973 342.378L337.57 376.846Z" fill="#15E3A5" mask="url(#path-3-inside-1_519_273)"/>
</svg>
